icons/folder_type_common_opened.svg

<svg xmlns="http://www.w3.org/2000/svg" viewBox="0 0 32 32"><path d="M27.4 5.5h-9.2l-2.1 4.2H4.3v16.8h25.2v-21Zm0 18.7H6.6V11.8h20.8Zm0-14.5h-8.2l1-2.1h7.1v2.1Z" style="fill:#a1aeb9"/><path d="M25.7 13.7H.5l3.8 12.8h25.2Z" style="fill:#a1aeb9"/><path d="M23.507 15a7.445 7.445 0 0 0-3 .63 7.482 7.482 0 0 1 1.684 1.02 6 6 0 1 1 0 11.7 7.485 7.485 0 0 1-1.684 1.02 7.5 7.5 0 1 0 3-14.371Z" style="fill:#d1d1d1"/><path d="M17.507 22.5a6.008 6.008 0 0 0 4.686 5.85 7.489 7.489 0 0 0 0-11.7 6.008 6.008 0 0 0-4.686 5.85Z" style="fill:#d1d1d1"/><path d="M16.007 22.5a7.508 7.508 0 0 1 4.5-6.87 7.5 7.5 0 1 0 0 13.74 7.508 7.508 0 0 1-4.5-6.87Z" style="fill:#d1d1d1"/></svg>

<svg xmlns="http://www.w3.org/2000/svg" viewBox="0 0 32 32"><title>folder_type_common_opened</title><path d="M27.4,5.5H18.2L16.1,9.7H4.3V26.5H29.5V5.5Zm0,18.7H6.6V11.8H27.4Zm0-14.5H19.2l1-2.1h7.1V9.7Z" style="fill:#a1aeb9"/><path d="M25.7,13.7H.5L4.3,26.5H29.5Z" style="fill:#a1aeb9"/><path d="M23.507,15a7.445,7.445,0,0,0-3,.63,7.482,7.482,0,0,1,1.684,1.02,6,6,0,1,1,0,11.7,7.485,7.485,0,0,1-1.684,1.02,7.5,7.5,0,1,0,3-14.371Z" style="fill:#d1d1d1"/><path d="M17.507,22.5a6.008,6.008,0,0,0,4.686,5.85,7.489,7.489,0,0,0,0-11.7,6.008,6.008,0,0,0-4.686,5.85Z" style="fill:#d1d1d1"/><path d="M16.007,22.5a7.508,7.508,0,0,1,4.5-6.87,7.5,7.5,0,1,0,0,13.74,7.508,7.508,0,0,1-4.5-6.87Z" style="fill:#d1d1d1"/></svg>
